Breeze Round Light/actions/24/distribute-horizontal-margin.svg

<svg xmlns="http://www.w3.org/2000/svg" viewBox="0 0 24 24" width="24" height="24">
  <defs id="defs3051">
    <style type="text/css" id="current-color-scheme">.ColorScheme-Text {color:#fcfcfc;}</style>
  </defs>
  <g transform="translate(1,1)">
    <path style="fill:currentColor;fill-opacity:1;stroke:none" d="m 6,3 c 0,0 -3,0 -3,3 0,3 0,7 0,10 0,3 3,3 3,3 h 10 c 0,0 3,0 3,-3 C 19,13 19,9 19,6 19,3 16,3 16,3 Z M 4,6 C 4,4 6,4 6,4 h 10 c 0,0 2,0 2,2 0,2 0,8 0,10 0,2 -2,2 -2,2 H 6 C 6,18 4,18 4,16 4,14 4,8 4,6 Z m 1,1 v 8 h 5 V 7 Z m 7,0 v 8 h 5 V 7 Z M 6,8 h 3 v 6 H 6 Z m 7,0 h 3 v 6 h -3 z" class="ColorScheme-Text"/>
  </g>
</svg>

<svg xmlns="http://www.w3.org/2000/svg" viewBox="0 0 24 24">
  <defs id="defs3051">
    <style type="text/css" id="current-color-scheme">
      .ColorScheme-Text {
        color:#232629;
      }
      </style>
  </defs><g transform="translate(1,1)">
 <path 
    style="fill:currentColor;fill-opacity:1;stroke:none" 
    d="M 3 3 L 3 4 L 3 19 L 4 19 L 18 19 L 19 19 L 19 18 L 19 4 L 19 3 L 3 3 z M 4 4 L 18 4 L 18 18 L 4 18 L 4 4 z M 5 7 L 5 15 L 10 15 L 10 7 L 5 7 z M 12 7 L 12 15 L 17 15 L 17 7 L 12 7 z M 6 8 L 9 8 L 9 14 L 6 14 L 6 8 z M 13 8 L 16 8 L 16 14 L 13 14 L 13 8 z "
    class="ColorScheme-Text"
    />
</g></svg>
